img/profile/device.svg

<svg width="24" height="24" viewBox="0 0 24 24" fill="none" xmlns="http://www.w3.org/2000/svg">
<g clip-path="url(#clip0_813_3007)">
<path d="M19.3999 15.6002C19.3999 16.1525 19.8476 16.6002 20.3999 16.6002C20.9522 16.6002 21.3999 16.1525 21.3999 15.6002H19.3999ZM2.5999 15.6002C2.5999 16.1525 3.04762 16.6002 3.5999 16.6002C4.15219 16.6002 4.5999 16.1525 4.5999 15.6002H2.5999ZM5.6999 5.2002H18.2999V3.2002H5.6999V5.2002ZM19.3999 6.23096V15.6002H21.3999V6.23096H19.3999ZM4.5999 15.6002V6.23096H2.5999V15.6002H4.5999ZM18.2999 5.2002C18.9393 5.2002 19.3999 5.69302 19.3999 6.23096H21.3999C21.3999 4.52578 19.9801 3.2002 18.2999 3.2002V5.2002ZM5.6999 3.2002C4.01968 3.2002 2.5999 4.52578 2.5999 6.23096H4.5999C4.5999 5.69302 5.06053 5.2002 5.6999 5.2002V3.2002ZM3.5999 17.2002H20.3999V15.2002H3.5999V17.2002ZM20.5999 17.4002V18.6002H22.5999V17.4002H20.5999ZM20.3999 18.8002H3.5999V20.8002H20.3999V18.8002ZM3.3999 18.6002V17.4002H1.3999V18.6002H3.3999ZM3.5999 18.8002C3.48945 18.8002 3.3999 18.7107 3.3999 18.6002H1.3999C1.3999 19.8152 2.38488 20.8002 3.5999 20.8002V18.8002ZM20.5999 18.6002C20.5999 18.7107 20.5104 18.8002 20.3999 18.8002V20.8002C21.6149 20.8002 22.5999 19.8152 22.5999 18.6002H20.5999ZM20.3999 17.2002C20.5104 17.2002 20.5999 17.2897 20.5999 17.4002H22.5999C22.5999 16.1852 21.6149 15.2002 20.3999 15.2002V17.2002ZM3.5999 15.2002C2.38488 15.2002 1.3999 16.1852 1.3999 17.4002H3.3999C3.3999 17.2897 3.48945 17.2002 3.5999 17.2002V15.2002Z" fill="#F2F4F6"/>
</g>
<defs>
<clipPath id="clip0_813_3007">
<rect width="24" height="24" fill="white"/>
</clipPath>
</defs>
</svg>

<svg width="24" height="24" viewBox="0 0 24 24" fill="none" xmlns="http://www.w3.org/2000/svg"><g clip-path="url(#clip0_813_3007)"><path d="M19.4 15.6a1 1 0 102 0h-2zm-16.8 0a1 1 0 102 0h-2zM5.7 5.2h12.6v-2H5.7v2zm13.7 1.031v9.37h2V6.23h-2zm-14.8 9.37V6.23h-2v9.37h2zM18.3 5.2c.64 0 1.1.492 1.1 1.03h2c0-1.705-1.42-3.03-3.1-3.03v2zm-12.6-2c-1.68 0-3.1 1.325-3.1 3.03h2c0-.538.46-1.03 1.1-1.03v-2zm-2.1 14h16.8v-2H3.6v2zm17 .2v1.2h2v-1.2h-2zm-.2 1.4H3.6v2h16.8v-2zm-17-.2v-1.2h-2v1.2h2zm.2.2a.2.2 0 01-.2-.2h-2a2.2 2.2 0 002.2 2.2v-2zm17-.2a.2.2 0 01-.2.2v2a2.2 2.2 0 002.2-2.2h-2zm-.2-1.4a.2.2 0 01.2.2h2a2.2 2.2 0 00-2.2-2.2v2zm-16.8-2a2.2 2.2 0 00-2.2 2.2h2a.2.2 0 01.2-.2v-2z" fill="#F2F4F6"/></g><defs><clipPath id="clip0_813_3007"><path fill="#fff" d="M0 0h24v24H0z"/></clipPath></defs></svg>
